images/3234785.svg

<?xml version="1.0" encoding="UTF-8"?>
<svg xmlns="http://www.w3.org/2000/svg" xmlns:xlink="http://www.w3.org/1999/xlink" width="300pt" height="300pt" viewBox="0 0 300 300" version="1.1">
<defs>
<g>
<symbol overflow="visible" id="glyph0-0">
<path style="stroke:none;" d="M 0.453125 1.59375 L 0.453125 -6.34375 L 4.953125 -6.34375 L 4.953125 1.59375 Z M 0.953125 1.09375 L 4.453125 1.09375 L 4.453125 -5.84375 L 0.953125 -5.84375 Z M 0.953125 1.09375 "/>
</symbol>
<symbol overflow="visible" id="glyph0-1">
<path style="stroke:none;" d="M 3.546875 -5.953125 C 2.898438 -5.953125 2.382812 -5.710938 2 -5.234375 C 1.625 -4.753906 1.4375 -4.101562 1.4375 -3.28125 C 1.4375 -2.445312 1.625 -1.789062 2 -1.3125 C 2.382812 -0.832031 2.898438 -0.59375 3.546875 -0.59375 C 4.191406 -0.59375 4.703125 -0.832031 5.078125 -1.3125 C 5.453125 -1.789062 5.640625 -2.445312 5.640625 -3.28125 C 5.640625 -4.101562 5.453125 -4.753906 5.078125 -5.234375 C 4.703125 -5.710938 4.191406 -5.953125 3.546875 -5.953125 Z M 3.546875 -6.6875 C 4.460938 -6.6875 5.195312 -6.375 5.75 -5.75 C 6.300781 -5.132812 6.578125 -4.3125 6.578125 -3.28125 C 6.578125 -2.238281 6.300781 -1.410156 5.75 -0.796875 C 5.195312 -0.179688 4.460938 0.125 3.546875 0.125 C 2.617188 0.125 1.878906 -0.179688 1.328125 -0.796875 C 0.773438 -1.410156 0.5 -2.238281 0.5 -3.28125 C 0.5 -4.3125 0.773438 -5.132812 1.328125 -5.75 C 1.878906 -6.375 2.617188 -6.6875 3.546875 -6.6875 Z M 3.546875 -6.6875 "/>
</symbol>
<symbol overflow="visible" id="glyph0-2">
<path style="stroke:none;" d="M 0.890625 -6.5625 L 2.078125 -6.5625 L 4.984375 -1.078125 L 4.984375 -6.5625 L 5.84375 -6.5625 L 5.84375 0 L 4.65625 0 L 1.75 -5.484375 L 1.75 0 L 0.890625 0 Z M 0.890625 -6.5625 "/>
</symbol>
<symbol overflow="visible" id="glyph0-3">
<path style="stroke:none;" d="M 0.890625 -6.5625 L 4.65625 -6.5625 L 4.65625 -5.8125 L 1.765625 -5.8125 L 1.765625 -3.875 L 4.375 -3.875 L 4.375 -3.140625 L 1.765625 -3.140625 L 1.765625 0 L 0.890625 0 Z M 0.890625 -6.5625 "/>
</symbol>
</g>
</defs>
<g id="surface52749">
<rect x="0" y="0" width="300" height="300" style="fill:rgb(100%,100%,100%);fill-opacity:1;stroke:none;"/>
<path style="fill:none;stroke-width:1.2;stroke-linecap:butt;stroke-linejoin:miter;stroke:rgb(0%,0%,0%);stroke-opacity:1;stroke-miterlimit:10;" d="M 36.785156 107.035156 L 36.019531 115.78125 "/>
<path style="fill:none;stroke-width:1.2;stroke-linecap:butt;stroke-linejoin:miter;stroke:rgb(100%,0%,0%);stroke-opacity:1;stroke-miterlimit:10;" d="M 36.019531 115.78125 L 35.25 124.523438 "/>
<path style="fill:none;stroke-width:1.2;stroke-linecap:butt;stroke-linejoin:miter;stroke:rgb(100%,0%,0%);stroke-opacity:1;stroke-miterlimit:10;" d="M 35.25 124.523438 L 42.4375 129.5625 "/>
<path style="fill:none;stroke-width:1.2;stroke-linecap:butt;stroke-linejoin:miter;stroke:rgb(0%,0%,0%);stroke-opacity:1;stroke-miterlimit:10;" d="M 42.4375 129.5625 L 49.628906 134.601562 "/>
<path style=" stroke:none;fill-rule:nonzero;fill:rgb(100%,100%,100%);fill-opacity:1;" d="M 31.25 119.023438 L 39.25 119.023438 L 39.25 130.023438 L 31.25 130.023438 Z M 31.25 119.023438 "/>
<g style="fill:rgb(100%,0%,0%);fill-opacity:1;">
  <use xlink:href="#glyph0-1" x="31.25" y="127.686523"/>
</g>
<path style="fill:none;stroke-width:1.2;stroke-linecap:butt;stroke-linejoin:miter;stroke:rgb(0%,0%,0%);stroke-opacity:1;stroke-miterlimit:10;" d="M 49.628906 134.601562 L 65.542969 127.1875 "/>
<path style="fill:none;stroke-width:1.2;stroke-linecap:butt;stroke-linejoin:miter;stroke:rgb(0%,0%,0%);stroke-opacity:1;stroke-miterlimit:10;" d="M 52.964844 137.605469 L 65.695312 131.671875 "/>
<path style="fill:none;stroke-width:1.2;stroke-linecap:butt;stroke-linejoin:miter;stroke:rgb(0%,0%,0%);stroke-opacity:1;stroke-miterlimit:10;" d="M 48.089844 152.089844 L 49.628906 134.601562 "/>
<path style="fill:none;stroke-width:1.2;stroke-linecap:butt;stroke-linejoin:miter;stroke:rgb(0%,0%,0%);stroke-opacity:1;stroke-miterlimit:10;" d="M 65.542969 127.1875 L 79.921875 137.261719 "/>
<path style="fill:none;stroke-width:1.2;stroke-linecap:butt;stroke-linejoin:miter;stroke:rgb(0%,0%,0%);stroke-opacity:1;stroke-miterlimit:10;" d="M 79.921875 137.261719 L 78.382812 154.753906 "/>
<path style="fill:none;stroke-width:1.2;stroke-linecap:butt;stroke-linejoin:miter;stroke:rgb(0%,0%,0%);stroke-opacity:1;stroke-miterlimit:10;" d="M 75.652344 138.648438 L 74.421875 152.640625 "/>
<path style="fill:none;stroke-width:1.2;stroke-linecap:butt;stroke-linejoin:miter;stroke:rgb(0%,0%,0%);stroke-opacity:1;stroke-miterlimit:10;" d="M 78.382812 154.753906 L 62.46875 162.167969 "/>
<path style="fill:none;stroke-width:1.2;stroke-linecap:butt;stroke-linejoin:miter;stroke:rgb(0%,0%,0%);stroke-opacity:1;stroke-miterlimit:10;" d="M 78.382812 154.753906 L 92.761719 164.828125 "/>
<path style="fill:none;stroke-width:1.2;stroke-linecap:butt;stroke-linejoin:miter;stroke:rgb(0%,0%,0%);stroke-opacity:1;stroke-miterlimit:10;" d="M 62.46875 162.167969 L 48.089844 152.089844 "/>
<path style="fill:none;stroke-width:1.2;stroke-linecap:butt;stroke-linejoin:miter;stroke:rgb(0%,0%,0%);stroke-opacity:1;stroke-miterlimit:10;" d="M 63.402344 157.777344 L 51.898438 149.714844 "/>
<path style="fill:none;stroke-width:1.2;stroke-linecap:butt;stroke-linejoin:miter;stroke:rgb(0%,0%,0%);stroke-opacity:1;stroke-miterlimit:10;" d="M 90.703125 164.648438 L 89.9375 173.390625 "/>
<path style="fill:none;stroke-width:1.2;stroke-linecap:butt;stroke-linejoin:miter;stroke:rgb(100%,0%,0%);stroke-opacity:1;stroke-miterlimit:10;" d="M 89.9375 173.390625 L 89.167969 182.136719 "/>
<path style="fill:none;stroke-width:1.2;stroke-linecap:butt;stroke-linejoin:miter;stroke:rgb(0%,0%,0%);stroke-opacity:1;stroke-miterlimit:10;" d="M 94.820312 165.007812 L 94.050781 173.753906 "/>
<path style="fill:none;stroke-width:1.2;stroke-linecap:butt;stroke-linejoin:miter;stroke:rgb(100%,0%,0%);stroke-opacity:1;stroke-miterlimit:10;" d="M 94.050781 173.753906 L 93.28125 182.496094 "/>
<path style="fill:none;stroke-width:1.2;stroke-linecap:butt;stroke-linejoin:miter;stroke:rgb(0%,0%,0%);stroke-opacity:1;stroke-miterlimit:10;" d="M 92.761719 164.828125 L 100.71875 161.121094 "/>
<path style="fill:none;stroke-width:1.2;stroke-linecap:butt;stroke-linejoin:miter;stroke:rgb(0%,0%,100%);stroke-opacity:1;stroke-miterlimit:10;" d="M 100.71875 161.121094 L 108.675781 157.414062 "/>
<path style=" stroke:none;fill-rule:nonzero;fill:rgb(100%,100%,100%);fill-opacity:1;" d="M 87.226562 176.816406 L 95.226562 176.816406 L 95.226562 187.816406 L 87.226562 187.816406 Z M 87.226562 176.816406 "/>
<g style="fill:rgb(100%,0%,0%);fill-opacity:1;">
  <use xlink:href="#glyph0-1" x="87.226562" y="185.479492"/>
</g>
<path style="fill:none;stroke-width:1.2;stroke-linecap:butt;stroke-linejoin:miter;stroke:rgb(0%,0%,100%);stroke-opacity:1;stroke-miterlimit:10;" d="M 108.675781 157.414062 L 115.867188 162.453125 "/>
<path style="fill:none;stroke-width:1.2;stroke-linecap:butt;stroke-linejoin:miter;stroke:rgb(0%,0%,0%);stroke-opacity:1;stroke-miterlimit:10;" d="M 115.867188 162.453125 L 123.054688 167.488281 "/>
<path style="fill:none;stroke-width:1.2;stroke-linecap:butt;stroke-linejoin:miter;stroke:rgb(0%,0%,0%);stroke-opacity:1;stroke-miterlimit:10;" d="M 110.214844 139.925781 L 109.445312 148.667969 "/>
<path style="fill:none;stroke-width:1.2;stroke-linecap:butt;stroke-linejoin:miter;stroke:rgb(0%,0%,100%);stroke-opacity:1;stroke-miterlimit:10;" d="M 109.445312 148.667969 L 108.675781 157.414062 "/>
<path style=" stroke:none;fill-rule:nonzero;fill:rgb(100%,100%,100%);fill-opacity:1;" d="M 105.675781 151.914062 L 112.675781 151.914062 L 112.675781 162.914062 L 105.675781 162.914062 Z M 105.675781 151.914062 "/>
<g style="fill:rgb(0%,0%,100%);fill-opacity:1;">
  <use xlink:href="#glyph0-2" x="105.675781" y="160.577148"/>
</g>
<path style="fill:none;stroke-width:1.2;stroke-linecap:butt;stroke-linejoin:miter;stroke:rgb(0%,0%,0%);stroke-opacity:1;stroke-miterlimit:10;" d="M 123.054688 167.488281 L 138.96875 160.074219 "/>
<path style="fill:none;stroke-width:1.2;stroke-linecap:butt;stroke-linejoin:miter;stroke:rgb(0%,0%,0%);stroke-opacity:1;stroke-miterlimit:10;" d="M 138.96875 160.074219 L 140.507812 142.585938 "/>
<path style="fill:none;stroke-width:1.2;stroke-linecap:butt;stroke-linejoin:miter;stroke:rgb(0%,0%,0%);stroke-opacity:1;stroke-miterlimit:10;" d="M 140.507812 142.585938 L 154.882812 152.660156 "/>
<path style="fill:none;stroke-width:1.2;stroke-linecap:butt;stroke-linejoin:miter;stroke:rgb(0%,0%,0%);stroke-opacity:1;stroke-miterlimit:10;" d="M 140.507812 142.585938 L 126.128906 132.511719 "/>
<path style="fill:none;stroke-width:1.2;stroke-linecap:butt;stroke-linejoin:miter;stroke:rgb(0%,0%,0%);stroke-opacity:1;stroke-miterlimit:10;" d="M 142.042969 125.097656 L 140.507812 142.585938 "/>
<path style="fill:none;stroke-width:1.2;stroke-linecap:butt;stroke-linejoin:miter;stroke:rgb(0%,0%,0%);stroke-opacity:1;stroke-miterlimit:10;" d="M 154.882812 152.660156 L 170.796875 145.246094 "/>
<path style="fill:none;stroke-width:1.2;stroke-linecap:butt;stroke-linejoin:miter;stroke:rgb(0%,0%,0%);stroke-opacity:1;stroke-miterlimit:10;" d="M 170.796875 145.246094 L 171.566406 136.503906 "/>
<path style="fill:none;stroke-width:1.2;stroke-linecap:butt;stroke-linejoin:miter;stroke:rgb(0%,0%,100%);stroke-opacity:1;stroke-miterlimit:10;" d="M 171.566406 136.503906 L 172.335938 127.757812 "/>
<path style="fill:none;stroke-width:1.2;stroke-linecap:butt;stroke-linejoin:miter;stroke:rgb(0%,0%,100%);stroke-opacity:1;stroke-miterlimit:10;" d="M 172.335938 127.757812 L 165.144531 122.71875 "/>
<path style="fill:none;stroke-width:1.2;stroke-linecap:butt;stroke-linejoin:miter;stroke:rgb(0%,0%,0%);stroke-opacity:1;stroke-miterlimit:10;" d="M 165.144531 122.71875 L 157.957031 117.683594 "/>
<path style="fill:none;stroke-width:1.2;stroke-linecap:butt;stroke-linejoin:miter;stroke:rgb(0%,0%,100%);stroke-opacity:1;stroke-miterlimit:10;" d="M 172.335938 127.757812 L 180.292969 124.050781 "/>
<path style="fill:none;stroke-width:1.2;stroke-linecap:butt;stroke-linejoin:miter;stroke:rgb(0%,0%,0%);stroke-opacity:1;stroke-miterlimit:10;" d="M 180.292969 124.050781 L 188.25 120.34375 "/>
<path style=" stroke:none;fill-rule:nonzero;fill:rgb(100%,100%,100%);fill-opacity:1;" d="M 169.335938 122.257812 L 176.335938 122.257812 L 176.335938 133.257812 L 169.335938 133.257812 Z M 169.335938 122.257812 "/>
<g style="fill:rgb(0%,0%,100%);fill-opacity:1;">
  <use xlink:href="#glyph0-2" x="169.335938" y="130.920898"/>
</g>
<path style="fill:none;stroke-width:1.2;stroke-linecap:butt;stroke-linejoin:miter;stroke:rgb(0%,0%,0%);stroke-opacity:1;stroke-miterlimit:10;" d="M 157.957031 117.683594 L 142.042969 125.097656 "/>
<path style="fill:none;stroke-width:1.2;stroke-linecap:butt;stroke-linejoin:miter;stroke:rgb(0%,0%,0%);stroke-opacity:1;stroke-miterlimit:10;" d="M 188.25 120.34375 L 202.628906 130.421875 "/>
<path style="fill:none;stroke-width:1.2;stroke-linecap:butt;stroke-linejoin:miter;stroke:rgb(0%,0%,0%);stroke-opacity:1;stroke-miterlimit:10;" d="M 202.628906 130.421875 L 201.089844 147.910156 "/>
<path style="fill:none;stroke-width:1.2;stroke-linecap:butt;stroke-linejoin:miter;stroke:rgb(0%,0%,0%);stroke-opacity:1;stroke-miterlimit:10;" d="M 206.589844 132.53125 L 205.359375 146.523438 "/>
<path style="fill:none;stroke-width:1.2;stroke-linecap:butt;stroke-linejoin:miter;stroke:rgb(0%,0%,0%);stroke-opacity:1;stroke-miterlimit:10;" d="M 218.542969 123.007812 L 202.628906 130.421875 "/>
<path style="fill:none;stroke-width:1.2;stroke-linecap:butt;stroke-linejoin:miter;stroke:rgb(0%,0%,0%);stroke-opacity:1;stroke-miterlimit:10;" d="M 201.089844 147.910156 L 215.46875 157.984375 "/>
<path style="fill:none;stroke-width:1.2;stroke-linecap:butt;stroke-linejoin:miter;stroke:rgb(0%,0%,0%);stroke-opacity:1;stroke-miterlimit:10;" d="M 215.46875 157.984375 L 231.382812 150.570312 "/>
<path style="fill:none;stroke-width:1.2;stroke-linecap:butt;stroke-linejoin:miter;stroke:rgb(0%,0%,0%);stroke-opacity:1;stroke-miterlimit:10;" d="M 215.316406 153.5 L 228.046875 147.566406 "/>
<path style="fill:none;stroke-width:1.2;stroke-linecap:butt;stroke-linejoin:miter;stroke:rgb(0%,0%,0%);stroke-opacity:1;stroke-miterlimit:10;" d="M 215.46875 157.984375 L 213.933594 175.476562 "/>
<path style="fill:none;stroke-width:1.2;stroke-linecap:butt;stroke-linejoin:miter;stroke:rgb(0%,0%,0%);stroke-opacity:1;stroke-miterlimit:10;" d="M 231.382812 150.570312 L 232.921875 133.082031 "/>
<path style="fill:none;stroke-width:1.2;stroke-linecap:butt;stroke-linejoin:miter;stroke:rgb(0%,0%,0%);stroke-opacity:1;stroke-miterlimit:10;" d="M 232.921875 133.082031 L 218.542969 123.007812 "/>
<path style="fill:none;stroke-width:1.2;stroke-linecap:butt;stroke-linejoin:miter;stroke:rgb(0%,0%,0%);stroke-opacity:1;stroke-miterlimit:10;" d="M 229.113281 135.457031 L 217.609375 127.398438 "/>
<path style="fill:none;stroke-width:1.2;stroke-linecap:butt;stroke-linejoin:miter;stroke:rgb(0%,0%,0%);stroke-opacity:1;stroke-miterlimit:10;" d="M 232.921875 133.082031 L 248.835938 125.667969 "/>
<path style="fill:none;stroke-width:1.2;stroke-linecap:butt;stroke-linejoin:miter;stroke:rgb(0%,0%,0%);stroke-opacity:1;stroke-miterlimit:10;" d="M 248.835938 125.667969 L 256.792969 121.960938 "/>
<path style="fill:none;stroke-width:1.2;stroke-linecap:butt;stroke-linejoin:miter;stroke:rgb(20%,80%,80%);stroke-opacity:1;stroke-miterlimit:10;" d="M 256.792969 121.960938 L 264.75 118.253906 "/>
<path style="fill:none;stroke-width:1.2;stroke-linecap:butt;stroke-linejoin:miter;stroke:rgb(0%,0%,0%);stroke-opacity:1;stroke-miterlimit:10;" d="M 248.835938 125.667969 L 252.542969 133.625 "/>
<path style="fill:none;stroke-width:1.2;stroke-linecap:butt;stroke-linejoin:miter;stroke:rgb(20%,80%,80%);stroke-opacity:1;stroke-miterlimit:10;" d="M 252.542969 133.625 L 256.25 141.582031 "/>
<path style="fill:none;stroke-width:1.2;stroke-linecap:butt;stroke-linejoin:miter;stroke:rgb(0%,0%,0%);stroke-opacity:1;stroke-miterlimit:10;" d="M 248.835938 125.667969 L 245.128906 117.710938 "/>
<path style="fill:none;stroke-width:1.2;stroke-linecap:butt;stroke-linejoin:miter;stroke:rgb(20%,80%,80%);stroke-opacity:1;stroke-miterlimit:10;" d="M 245.128906 117.710938 L 241.421875 109.753906 "/>
<path style=" stroke:none;fill-rule:nonzero;fill:rgb(100%,100%,100%);fill-opacity:1;" d="M 261.75 112.753906 L 267.75 112.753906 L 267.75 123.753906 L 261.75 123.753906 Z M 261.75 112.753906 "/>
<g style="fill:rgb(20%,80%,80%);fill-opacity:1;">
  <use xlink:href="#glyph0-3" x="261.75" y="121.416992"/>
</g>
<path style=" stroke:none;fill-rule:nonzero;fill:rgb(100%,100%,100%);fill-opacity:1;" d="M 253.25 136.082031 L 259.25 136.082031 L 259.25 147.082031 L 253.25 147.082031 Z M 253.25 136.082031 "/>
<g style="fill:rgb(20%,80%,80%);fill-opacity:1;">
  <use xlink:href="#glyph0-3" x="253.25" y="144.745117"/>
</g>
<path style=" stroke:none;fill-rule:nonzero;fill:rgb(100%,100%,100%);fill-opacity:1;" d="M 235.421875 104.253906 L 241.421875 104.253906 L 241.421875 115.253906 L 235.421875 115.253906 Z M 235.421875 104.253906 "/>
<g style="fill:rgb(20%,80%,80%);fill-opacity:1;">
  <use xlink:href="#glyph0-3" x="235.421875" y="112.916992"/>
</g>
<path style="fill:none;stroke-width:1.2;stroke-linecap:butt;stroke-linejoin:miter;stroke:rgb(0%,0%,0%);stroke-opacity:1;stroke-miterlimit:10;" d="M 213.933594 175.476562 L 213.164062 184.21875 "/>
<path style="fill:none;stroke-width:1.2;stroke-linecap:butt;stroke-linejoin:miter;stroke:rgb(20%,80%,80%);stroke-opacity:1;stroke-miterlimit:10;" d="M 213.164062 184.21875 L 212.394531 192.964844 "/>
<path style="fill:none;stroke-width:1.2;stroke-linecap:butt;stroke-linejoin:miter;stroke:rgb(0%,0%,0%);stroke-opacity:1;stroke-miterlimit:10;" d="M 213.933594 175.476562 L 205.1875 174.707031 "/>
<path style="fill:none;stroke-width:1.2;stroke-linecap:butt;stroke-linejoin:miter;stroke:rgb(20%,80%,80%);stroke-opacity:1;stroke-miterlimit:10;" d="M 205.1875 174.707031 L 196.441406 173.9375 "/>
<path style="fill:none;stroke-width:1.2;stroke-linecap:butt;stroke-linejoin:miter;stroke:rgb(0%,0%,0%);stroke-opacity:1;stroke-miterlimit:10;" d="M 213.933594 175.476562 L 222.675781 176.242188 "/>
<path style="fill:none;stroke-width:1.2;stroke-linecap:butt;stroke-linejoin:miter;stroke:rgb(20%,80%,80%);stroke-opacity:1;stroke-miterlimit:10;" d="M 222.675781 176.242188 L 231.421875 177.011719 "/>
<path style=" stroke:none;fill-rule:nonzero;fill:rgb(100%,100%,100%);fill-opacity:1;" d="M 209.394531 187.464844 L 215.394531 187.464844 L 215.394531 198.464844 L 209.394531 198.464844 Z M 209.394531 187.464844 "/>
<g style="fill:rgb(20%,80%,80%);fill-opacity:1;">
  <use xlink:href="#glyph0-3" x="209.394531" y="196.12793"/>
</g>
<path style=" stroke:none;fill-rule:nonzero;fill:rgb(100%,100%,100%);fill-opacity:1;" d="M 190.441406 168.4375 L 196.441406 168.4375 L 196.441406 179.4375 L 190.441406 179.4375 Z M 190.441406 168.4375 "/>
<g style="fill:rgb(20%,80%,80%);fill-opacity:1;">
  <use xlink:href="#glyph0-3" x="190.441406" y="177.100586"/>
</g>
<path style=" stroke:none;fill-rule:nonzero;fill:rgb(100%,100%,100%);fill-opacity:1;" d="M 228.421875 171.511719 L 234.421875 171.511719 L 234.421875 182.511719 L 228.421875 182.511719 Z M 228.421875 171.511719 "/>
<g style="fill:rgb(20%,80%,80%);fill-opacity:1;">
  <use xlink:href="#glyph0-3" x="228.421875" y="180.174805"/>
</g>
<path style="fill:none;stroke-width:1.2;stroke-linecap:butt;stroke-linejoin:miter;stroke:rgb(0%,0%,0%);stroke-opacity:1;stroke-miterlimit:10;" d="M 126.128906 132.511719 L 110.214844 139.925781 "/>
</g>
</svg>

<svg xmlns="http://www.w3.org/2000/svg" xmlns:xlink="http://www.w3.org/1999/xlink" width="300pt" height="300pt" viewBox="0 0 300 300"><defs><symbol overflow="visible"><path d="M.453 1.594v-7.938h4.5v7.938zm.5-.5h3.5v-6.938h-3.5zm0 0"/></symbol><symbol overflow="visible" id="a"><path d="M3.547-5.953c-.65 0-1.164.242-1.547.72-.375.48-.563 1.13-.563 1.952 0 .835.188 1.49.563 1.967.383.48.898.72 1.547.72.644 0 1.156-.24 1.53-.72.376-.476.564-1.132.564-1.968 0-.822-.187-1.474-.562-1.954-.375-.477-.887-.72-1.53-.72zm0-.734c.914 0 1.648.312 2.203.937.55.617.828 1.438.828 2.47 0 1.042-.277 1.87-.828 2.483-.555.617-1.29.922-2.203.922-.93 0-1.668-.305-2.22-.922C.774-1.41.5-2.237.5-3.28c0-1.033.273-1.853.828-2.47.55-.625 1.29-.938 2.22-.938zm0 0"/></symbol><symbol overflow="visible" id="b"><path d="M.89-6.563H2.08l2.906 5.485v-5.484h.86V0H4.656L1.75-5.484V0H.89zm0 0"/></symbol><symbol overflow="visible" id="c"><path d="M.89-6.563h3.766v.75h-2.89v1.938h2.61v.734h-2.61V0H.89zm0 0"/></symbol></defs><g><path fill="#fff" d="M0 0h300v300H0z"/><path d="M36.785 107.035l-.765 8.746" stroke-width="1.2" stroke="#000" stroke-miterlimit="10" fill="none"/><path d="M36.02 115.78l-.77 8.743M35.25 124.523l7.188 5.04" stroke-width="1.2" stroke="#f00" stroke-miterlimit="10" fill="none"/><path d="M42.438 129.563l7.19 5.04" stroke-width="1.2" stroke="#000" stroke-miterlimit="10" fill="none"/><path d="M31.25 119.023h8v11h-8zm0 0" fill="#fff"/><use xlink:href="#a" x="31.25" y="127.687" fill="#f00"/><path d="M49.63 134.602l15.913-7.415M52.965 137.605l12.73-5.933M48.09 152.09l1.54-17.488M65.543 127.188l14.38 10.074M79.922 137.262l-1.54 17.492M75.652 138.648l-1.23 13.993M78.383 154.754l-15.914 7.414M78.383 154.754l14.38 10.074M62.47 162.168L48.09 152.09M63.402 157.777l-11.504-8.062M90.703 164.648l-.766 8.743" stroke-width="1.2" stroke="#000" stroke-miterlimit="10" fill="none"/><path d="M89.938 173.39l-.77 8.747" stroke-width="1.2" stroke="#f00" stroke-miterlimit="10" fill="none"/><path d="M94.82 165.008l-.77 8.746" stroke-width="1.2" stroke="#000" stroke-miterlimit="10" fill="none"/><path d="M94.05 173.754l-.77 8.742" stroke-width="1.2" stroke="#f00" stroke-miterlimit="10" fill="none"/><path d="M92.762 164.828l7.957-3.707" stroke-width="1.2" stroke="#000" stroke-miterlimit="10" fill="none"/><path d="M100.72 161.12l7.956-3.706" stroke-width="1.2" stroke="#00f" stroke-miterlimit="10" fill="none"/><path d="M87.227 176.816h8v11h-8zm0 0" fill="#fff"/><use xlink:href="#a" x="87.227" y="185.479" fill="#f00"/><path d="M108.676 157.414l7.19 5.04" stroke-width="1.2" stroke="#00f" stroke-miterlimit="10" fill="none"/><path d="M115.867 162.453l7.188 5.035M110.215 139.926l-.77 8.742" stroke-width="1.2" stroke="#000" stroke-miterlimit="10" fill="none"/><path d="M109.445 148.668l-.77 8.746" stroke-width="1.2" stroke="#00f" stroke-miterlimit="10" fill="none"/><path d="M105.676 151.914h7v11h-7zm0 0" fill="#fff"/><use xlink:href="#b" x="105.676" y="160.577" fill="#00f"/><path d="M123.055 167.488l15.914-7.414M138.97 160.074l1.538-17.488M140.508 142.586l14.375 10.074M140.508 142.586l-14.38-10.074M142.043 125.098l-1.535 17.488M154.883 152.66l15.914-7.414M170.797 145.246l.77-8.742" stroke-width="1.2" stroke="#000" stroke-miterlimit="10" fill="none"/><path d="M171.566 136.504l.77-8.746M172.336 127.758l-7.19-5.04" stroke-width="1.2" stroke="#00f" stroke-miterlimit="10" fill="none"/><path d="M165.145 122.72l-7.188-5.036" stroke-width="1.2" stroke="#000" stroke-miterlimit="10" fill="none"/><path d="M172.336 127.758l7.957-3.707" stroke-width="1.2" stroke="#00f" stroke-miterlimit="10" fill="none"/><path d="M180.293 124.05l7.957-3.706" stroke-width="1.2" stroke="#000" stroke-miterlimit="10" fill="none"/><path d="M169.336 122.258h7v11h-7zm0 0" fill="#fff"/><use xlink:href="#b" x="169.336" y="130.921" fill="#00f"/><path d="M157.957 117.684l-15.914 7.414M188.25 120.344l14.38 10.078M202.63 130.422l-1.54 17.488M206.59 132.53l-1.23 13.993M218.543 123.008l-15.914 7.414M201.09 147.91l14.38 10.074M215.47 157.984l15.913-7.414M215.316 153.5l12.73-5.934M215.47 157.984l-1.536 17.493M231.383 150.57l1.54-17.488M232.922 133.082l-14.38-10.074M229.113 135.457l-11.504-8.06M232.922 133.082l15.914-7.414M248.836 125.668l7.957-3.707" stroke-width="1.2" stroke="#000" stroke-miterlimit="10" fill="none"/><path d="M256.793 121.96l7.957-3.706" stroke-width="1.2" stroke="#3cc" stroke-miterlimit="10" fill="none"/><path d="M248.836 125.668l3.707 7.957" stroke-width="1.2" stroke="#000" stroke-miterlimit="10" fill="none"/><path d="M252.543 133.625l3.707 7.957" stroke-width="1.2" stroke="#3cc" stroke-miterlimit="10" fill="none"/><path d="M248.836 125.668l-3.707-7.957" stroke-width="1.2" stroke="#000" stroke-miterlimit="10" fill="none"/><path d="M245.13 117.71l-3.708-7.956" stroke-width="1.2" stroke="#3cc" stroke-miterlimit="10" fill="none"/><path d="M261.75 112.754h6v11h-6zm0 0" fill="#fff"/><use xlink:href="#c" x="261.75" y="121.417" fill="#3cc"/><path d="M253.25 136.082h6v11h-6zm0 0" fill="#fff"/><use xlink:href="#c" x="253.25" y="144.745" fill="#3cc"/><path d="M235.422 104.254h6v11h-6zm0 0" fill="#fff"/><use xlink:href="#c" x="235.422" y="112.917" fill="#3cc"/><path d="M213.934 175.477l-.77 8.742" stroke-width="1.2" stroke="#000" stroke-miterlimit="10" fill="none"/><path d="M213.164 184.22l-.77 8.745" stroke-width="1.2" stroke="#3cc" stroke-miterlimit="10" fill="none"/><path d="M213.934 175.477l-8.746-.77" stroke-width="1.2" stroke="#000" stroke-miterlimit="10" fill="none"/><path d="M205.188 174.707l-8.747-.77" stroke-width="1.2" stroke="#3cc" stroke-miterlimit="10" fill="none"/><path d="M213.934 175.477l8.742.765" stroke-width="1.2" stroke="#000" stroke-miterlimit="10" fill="none"/><path d="M222.676 176.242l8.746.77" stroke-width="1.2" stroke="#3cc" stroke-miterlimit="10" fill="none"/><path d="M209.395 187.465h6v11h-6zm0 0" fill="#fff"/><use xlink:href="#c" x="209.395" y="196.128" fill="#3cc"/><path d="M190.44 168.438h6v11h-6zm0 0" fill="#fff"/><use xlink:href="#c" x="190.441" y="177.101" fill="#3cc"/><path d="M228.422 171.512h6v11h-6zm0 0" fill="#fff"/><use xlink:href="#c" x="228.422" y="180.175" fill="#3cc"/><path d="M126.13 132.512l-15.915 7.414" stroke-width="1.2" stroke="#000" stroke-miterlimit="10" fill="none"/></g></svg>
